X:18542
T:Way to Get Married. JC.129
M:6/8
L:1/8
Q:120
S:John Clare,Poet,Helpston. (1793-1864)
R:Jig
O:England
A:Northamptonshire
N:
Z:P Headford
K:A
ABA cd2|efe efg|agf edc|BcA BGE|!
ABAc2d|efe efg|agf edc|~BAB"crot"A3:|!
|:EFEG2A|BGe BGE|ABAc2d|eca ecA|!
fgff2g|agfe3|ege eae|dcB"crot"A3:|]
W:MS includes Dance Instructions.


